fs/ribbon_off_32_filled.svg

<svg viewBox="0 0 32 32" fill="none" xmlns="http://www.w3.org/2000/svg" height="1em" width="1em">
  <path d="M6.75821 8.17311C6.26953 9.35192 5.99982 10.6445 5.99982 12C5.99982 15.1066 7.41642 17.8823 9.63889 19.7165C9.75695 19.8139 9.87729 19.9087 9.99982 20.0007C11.6711 21.2561 13.7486 22 15.9998 22C17.3554 22 18.6481 21.7303 19.8269 21.2415L20.9625 22.3771C19.4601 23.0969 17.777 23.5 15.9998 23.5C13.8011 23.5 11.7466 22.883 9.99982 21.8126V29C9.99982 29.3603 10.1936 29.6927 10.5071 29.8702C10.8206 30.0477 11.2054 30.0429 11.5143 29.8575L15.9998 27.1662L20.4853 29.8575C20.7943 30.0429 21.179 30.0477 21.4925 29.8702C21.806 29.6927 21.9998 29.3603 21.9998 29V23.4144L28.2927 29.7071C28.6832 30.0976 29.3164 30.0976 29.7069 29.7071C30.0975 29.3166 30.0974 28.6834 29.7069 28.2929L3.70661 2.29319C3.31608 1.90267 2.68292 1.90268 2.2924 2.29321C1.90188 2.68374 1.90188 3.3169 2.29241 3.70742L6.75821 8.17311ZM8.69973 5.16557L22.8344 19.2999C24.7825 17.4753 25.9998 14.8798 25.9998 12C25.9998 6.47715 21.5227 2 15.9998 2C13.1199 2 10.5244 3.21737 8.69973 5.16557Z" fill="#212121"/>
</svg>

<svg viewBox="0 0 32 32" fill="none" xmlns="http://www.w3.org/2000/svg" height="1em" width="1em">
  <path d="M6.758 8.173A9.97 9.97 0 0 0 6 12a9.98 9.98 0 0 0 4 8 9.955 9.955 0 0 0 6 2c1.355 0 2.648-.27 3.827-.759l1.135 1.136A11.455 11.455 0 0 1 16 23.5c-2.199 0-4.253-.617-6-1.687V29a1 1 0 0 0 1.514.858L16 27.166l4.485 2.692A1 1 0 0 0 22 29v-5.586l6.293 6.293a1 1 0 0 0 1.414-1.414l-26-26a1 1 0 0 0-1.415 1.414l4.466 4.466ZM8.7 5.166 22.834 19.3A9.972 9.972 0 0 0 26 12c0-5.523-4.477-10-10-10a9.972 9.972 0 0 0-7.3 3.166Z" fill="#212121"/>
</svg>
